dist/img/monkey.svg

<svg width="64" height="64" viewBox="0 0 64 64" fill="none" xmlns="http://www.w3.org/2000/svg">
<path d="M25 32C26.1046 32 27 31.1046 27 30C27 28.8954 26.1046 28 25 28C23.8954 28 23 28.8954 23 30C23 31.1046 23.8954 32 25 32Z" fill="#216E7A"/>
<path d="M39 32C40.1046 32 41 31.1046 41 30C41 28.8954 40.1046 28 39 28C37.8954 28 37 28.8954 37 30C37 31.1046 37.8954 32 39 32Z" fill="#216E7A"/>
<path d="M29.5 40C30.8807 40 32 39.3284 32 38.5C32 37.6716 30.8807 37 29.5 37C28.1193 37 27 37.6716 27 38.5C27 39.3284 28.1193 40 29.5 40Z" fill="#216E7A"/>
<path opacity="0.8" d="M52 30H48V24H52C53.105 24 54 24.895 54 26V28C54 29.105 53.105 30 52 30Z" fill="#216E7A"/>
<path d="M34.5 40C35.8807 40 37 39.3284 37 38.5C37 37.6716 35.8807 37 34.5 37C33.1193 37 32 37.6716 32 38.5C32 39.3284 33.1193 40 34.5 40Z" fill="#216E7A"/>
<path opacity="0.8" d="M12 30H16V24H12C10.895 24 10 24.895 10 26V28C10 29.105 10.895 30 12 30Z" fill="#216E7A"/>
<path opacity="0.8" d="M47.99 23.4399C47.69 18.1799 43.33 13.9999 38 13.9999C36.34 13.9999 34.84 14.6699 33.76 15.7599C32.67 16.8399 32 18.3399 32 19.9999C32 18.3399 31.33 16.8399 30.24 15.7599C29.16 14.6699 27.66 13.9999 26 13.9999C20.67 13.9999 16.31 18.1799 16.01 23.4399C16.15 19.2399 17.91 15.4599 20.68 12.6799C23.61 9.75992 27.53 7.95992 32 7.99992C36.47 7.95992 40.39 9.75992 43.32 12.6799C46.09 15.4599 47.85 19.2399 47.99 23.4399Z" fill="#216E7A"/>
<path d="M53 20H48.53C47.807 16.989 46.269 14.223 44.026 11.972C40.805 8.76196 36.583 6.99996 32.125 6.99996C32.041 6.99996 31.957 6.99896 31.875 6.99996C27.417 6.99996 23.194 8.76296 19.972 11.975C17.73 14.225 16.193 16.99 15.471 20.001H11C8.243 20.001 6 22.244 6 25.001V29.001C6 31.758 8.243 34.001 11 34.001H13.456C11.282 36.057 10 38.948 10 42V47C10 52.514 14.486 57 20 57H32H44C49.514 57 54 52.514 54 47V42C54 38.948 52.718 36.057 50.545 34H53C55.757 34 58 31.757 58 29V25C58 22.243 55.757 20 53 20ZM21.386 13.389C24.229 10.555 27.949 8.99996 31.875 8.99996C31.914 8.99996 31.954 8.99996 31.992 8.99996L32 7.99996L32.008 8.99996C36.016 8.97096 39.743 10.528 42.612 13.386C42.995 13.771 43.355 14.173 43.691 14.59C42.03 13.581 40.082 13 38 13C35.457 13 33.226 14.363 32 16.397C30.774 14.363 28.543 13 26 13C23.918 13 21.97 13.581 20.309 14.59C20.644 14.173 21.003 13.772 21.386 13.389ZM11 32C9.346 32 8 30.654 8 29V25C8 23.346 9.346 22 11 22H15V32H11ZM52 42V47C52 51.411 48.411 55 44 55H32H20C15.589 55 12 51.411 12 47V42C12 38.799 13.725 35.812 16.501 34.205L16.855 34H17V24C17 19.038 21.038 15 26 15C28.757 15 31 17.243 31 20V21H33V20C33 17.243 35.243 15 38 15C42.963 15 47 19.038 47 24V34H47.145L47.499 34.205C50.275 35.812 52 38.799 52 42ZM56 29C56 30.654 54.654 32 53 32H49V22H53C54.654 22 56 23.346 56 25V29ZM25 36C28.309 36 31 33.309 31 30C31 26.691 28.309 24 25 24C21.691 24 19 26.691 19 30C19 33.309 21.691 36 25 36ZM25 26C27.206 26 29 27.794 29 30C29 32.206 27.206 34 25 34C22.794 34 21 32.206 21 30C21 27.794 22.794 26 25 26ZM45 43H47V46C47 48.206 45.206 50 43 50H21C18.794 50 17 48.206 17 46V43H19V46C19 47.103 19.897 48 21 48H43C44.103 48 45 47.103 45 46V43ZM39 36C42.309 36 45 33.309 45 30C45 26.691 42.309 24 39 24C35.691 24 33 26.691 33 30C33 33.309 35.691 36 39 36ZM39 26C41.206 26 43 27.794 43 30C43 32.206 41.206 34 39 34C36.794 34 35 32.206 35 30C35 27.794 36.794 26 39 26Z" fill="#216E7A"/>
</svg>

<svg width="64" height="64" fill="none" xmlns="http://www.w3.org/2000/svg"><path d="M25 32a2 2 0 100-4 2 2 0 000 4zm14 0a2 2 0 100-4 2 2 0 000 4zm-9.5 8c1.38 0 2.5-.672 2.5-1.5S30.88 37 29.5 37s-2.5.672-2.5 1.5 1.12 1.5 2.5 1.5z" fill="#216E7A"/><path opacity=".8" d="M52 30h-4v-6h4a2 2 0 012 2v2a2 2 0 01-2 2z" fill="#216E7A"/><path d="M34.5 40c1.38 0 2.5-.672 2.5-1.5S35.88 37 34.5 37s-2.5.672-2.5 1.5 1.12 1.5 2.5 1.5z" fill="#216E7A"/><path opacity=".8" d="M12 30h4v-6h-4a2 2 0 00-2 2v2a2 2 0 002 2zm35.99-6.56C47.69 18.18 43.33 14 38 14c-1.66 0-3.16.67-4.24 1.76A5.944 5.944 0 0032 20c0-1.66-.67-3.16-1.76-4.24A5.944 5.944 0 0026 14c-5.33 0-9.69 4.18-9.99 9.44.14-4.2 1.9-7.98 4.67-10.76C23.61 9.76 27.53 7.96 32 8c4.47-.04 8.39 1.76 11.32 4.68 2.77 2.78 4.53 6.56 4.67 10.76z" fill="#216E7A"/><path d="M53 20h-4.47a16.957 16.957 0 00-4.504-8.028C40.805 8.762 36.583 7 32.125 7h-.25c-4.458 0-8.681 1.763-11.903 4.975a16.94 16.94 0 00-4.501 8.026H11c-2.757 0-5 2.243-5 5v4c0 2.757 2.243 5 5 5h2.456A11.035 11.035 0 0010 42v5c0 5.514 4.486 10 10 10h24c5.514 0 10-4.486 10-10v-5c0-3.052-1.282-5.943-3.455-8H53c2.757 0 5-2.243 5-5v-4c0-2.757-2.243-5-5-5zm-31.614-6.611C24.229 10.555 27.949 9 31.875 9h.117L32 8l.008 1c4.008-.029 7.735 1.528 10.604 4.386.383.385.743.787 1.079 1.204A10.927 10.927 0 0038 13a7.003 7.003 0 00-6 3.397A7.003 7.003 0 0026 13c-2.082 0-4.03.581-5.691 1.59.335-.417.694-.818 1.077-1.201zM11 32c-1.654 0-3-1.346-3-3v-4c0-1.654 1.346-3 3-3h4v10h-4zm41 10v5c0 4.411-3.589 8-8 8H20c-4.411 0-8-3.589-8-8v-5a9.037 9.037 0 014.501-7.795l.354-.205H17V24c0-4.962 4.038-9 9-9 2.757 0 5 2.243 5 5v1h2v-1c0-2.757 2.243-5 5-5 4.963 0 9 4.038 9 9v10h.145l.354.205A9.037 9.037 0 0152 42zm4-13c0 1.654-1.346 3-3 3h-4V22h4c1.654 0 3 1.346 3 3v4zm-31 7c3.309 0 6-2.691 6-6s-2.691-6-6-6-6 2.691-6 6 2.691 6 6 6zm0-10c2.206 0 4 1.794 4 4s-1.794 4-4 4-4-1.794-4-4 1.794-4 4-4zm20 17h2v3c0 2.206-1.794 4-4 4H21c-2.206 0-4-1.794-4-4v-3h2v3c0 1.103.897 2 2 2h22c1.103 0 2-.897 2-2v-3zm-6-7c3.309 0 6-2.691 6-6s-2.691-6-6-6-6 2.691-6 6 2.691 6 6 6zm0-10c2.206 0 4 1.794 4 4s-1.794 4-4 4-4-1.794-4-4 1.794-4 4-4z" fill="#216E7A"/></svg>
